X:1
T:Minuet
T:Minuet
T:k 2
T:Wolfgang Amadeus Mozart
C:Wolfgang Amadeus Mozart
%%score 1 2
L:1/8
Q:1/4=132
M:3/4
K:F
V:1 treble 
V:2 bass 
V:1
 fa c2 c2 | df B2 B2 | Ac F2 E2 | E4 F2 | CE G2 G2 | CF A2 A2 | (3CEG B2 A2 | A4 G2 :| c_e A2 A2 | %9
 Bd G2 G2 | Ac ^F2 F2 | ^F4 G2 | Bd G2 G2 | Ac F2 F2 | BG E2 E2 | E4 F2 | fa c2 c2 | df B2 B2 | %18
 Ac F2 E2 | E4 !fermata!F2 | fa c2 c2 | df B2 B2 | Ac F2 E2 | E4 F2 |] %24
V:2
 F,4 A,2 | B,4 B,2 | C4 C,2 | F,2 C,2 F,,2 | C,6 | C,6 | C,2 E,2 F,2 | C2 G,2 C,2 :| ^F,6 | G,6 | %10
 C2 D2 D,2 | G,2 D,2 G,,2 | E,6 | F,6 | B,2 C2 C,2 | F,2 C,2 F,,2 | A,6 | B,6 | C4 C,2 | %19
 !fermata!D,6 | A,6 | B,6 | C4 C,2 | F,2 C,2 F,,2 |] %24

